X: 1785
T: Paddy Get Out of the Ashes
B: australian traditional tunes wiki
M:6/8
L:1/8
R: Jig
Q: 3/8=100
K:G
V:1 
|:"G"DGG BGG|AGG Bdd|ggg dBG|BGG "D"A/d/BA|"G"DGG BGG|AGG Bdd|gag dBB|"D"cAF"G"G3:|
|:"G"BBB BGB|ggg gfe|ddd dBd|"G"dBG "D"ABc|"G"ddd dBd|ggg "C"g/a/fe|"G"dgg dBB|"D"cAF"G"G3:|
% abcbook-tune_id 6342d53ab6d533524d194596


% abcbook-boost 0
% abcbook-tablature 
% abcbook-transpose 
% abcbook-lastupdated 1665324383771
% abcbook-soundfonts 
% abcbook-repeats 1
% NFF Book 2015

